Newaita/actions/22/accept_signal.svg

<svg height="22" viewBox="0 0 22 22" width="22" xmlns="http://www.w3.org/2000/svg"><path d="m16.828125 1.992188c-.15625 0-.308594.019531-.457031.054687v-.050781h-13.640625c-.335938 0-.640625.183594-.800781.476562-.15625.296875-.140626.652344.046874.929688l5.121094 7.683594-5.121094 7.683593c-.1875.28125-.203124.636719-.046874.929688.160156.296875.464843.480469.800781.480469h13.640625v-.054688c.148437.039062.300781.058594.457031.058594h1.363281c1.007813 0 1.820313-.8125 1.820313-1.820313v-14.554687c0-1.007813-.8125-1.816406-1.820313-1.816406zm-12.40625 1.8125h10.585937v.003906h2.273438c.503906 0 .910156.40625.910156.910156v12.734375c0 .503906-.40625.910156-.910156.910156h-2.273438v.003907h-10.585937l4.519531-6.777344c.199219-.304688.199219-.699219 0-1.003906zm0 0" fill="#424242"/></svg>

<?xml version="1.0" encoding="UTF-8"?>
<svg xmlns="http://www.w3.org/2000/svg" xmlns:xlink="http://www.w3.org/1999/xlink" width="22px" height="22px" viewBox="0 0 22 22" version="1.1">
<g id="surface1">
<path style=" stroke:none;fill-rule:nonzero;fill:rgb(25.882354%,25.882354%,25.882354%);fill-opacity:1;" d="M 16.828125 1.992188 C 16.671875 1.992188 16.519531 2.011719 16.371094 2.046875 L 16.371094 1.996094 L 2.730469 1.996094 C 2.394531 1.996094 2.089844 2.179688 1.929688 2.472656 C 1.773438 2.769531 1.789062 3.125 1.976562 3.402344 L 7.097656 11.085938 L 1.976562 18.769531 C 1.789062 19.050781 1.773438 19.40625 1.929688 19.699219 C 2.089844 19.996094 2.394531 20.179688 2.730469 20.179688 L 16.371094 20.179688 L 16.371094 20.125 C 16.519531 20.164062 16.671875 20.183594 16.828125 20.183594 L 18.191406 20.183594 C 19.199219 20.183594 20.011719 19.371094 20.011719 18.363281 L 20.011719 3.808594 C 20.011719 2.800781 19.199219 1.992188 18.191406 1.992188 Z M 4.421875 3.804688 L 15.007812 3.804688 C 15.007812 3.808594 15.007812 3.808594 15.007812 3.808594 L 17.28125 3.808594 C 17.785156 3.808594 18.191406 4.214844 18.191406 4.71875 L 18.191406 17.453125 C 18.191406 17.957031 17.785156 18.363281 17.28125 18.363281 L 15.007812 18.363281 C 15.007812 18.363281 15.007812 18.367188 15.007812 18.367188 L 4.421875 18.367188 L 8.941406 11.589844 C 9.140625 11.285156 9.140625 10.890625 8.941406 10.585938 Z M 4.421875 3.804688 "/>
</g>
</svg>
